contributed-vectors/lorex_home.svg

<?xml version="1.0" encoding="UTF-8"?>
<svg version="1.1" viewBox="0 0 192 192" xml:space="preserve" xmlns="http://www.w3.org/2000/svg">
	 <rect class="a" x="20" y="20" width="152" height="152" rx="10" fill="#728dbe"/><path class="a" d="m30 20c-5.54 0-10 4.46-10 10v66l19.375-9.375 56.625-51.975v-14.65h-66z" fill="#9abeff"/><path d="m20 96v66c0 5.54 4.46 10 10 10h66l-2.1309-10.406-12.285-15.75-61.584-49.844z" fill="#96dfd3"/><rect class="a" transform="rotate(45)" x="79.875" y="-55.889" width="111.78" height="111.78" rx="7.3539" fill="#fff"/><path d="m89.479 104.59v20.028h-21.542v-29.692h-12.808l40.521-38.193 9.8975 9.1988v-5.5892h13.74v19.213l17.583 15.72h-13.856v29.692h-21.192v-20.377z" fill="none" stroke="#96dfd3" stroke-linecap="round" stroke-linejoin="round" stroke-width="3.6966"/></svg>

<svg xmlns="http://www.w3.org/2000/svg" xml:space="preserve" viewBox="0 0 192 192"><rect width="152" height="152" x="20" y="20" fill="#728dbe" class="a" rx="10"/><path fill="#9abeff" d="M30 20c-5.54 0-10 4.46-10 10v66l19.375-9.375L96 34.65V20H30z" class="a"/><path fill="#96dfd3" d="M20 96v66c0 5.54 4.46 10 10 10h66l-2.13-10.406-12.286-15.75L20 96z"/><rect width="111.78" height="111.78" x="79.875" y="-55.889" fill="#fff" class="a" rx="7.354" transform="rotate(45)"/><path fill="none" stroke="#96dfd3" stroke-linecap="round" stroke-linejoin="round" stroke-width="3.697" d="M89.479 104.59v20.028H67.937V94.926H55.129L95.65 56.733l9.898 9.199v-5.59h13.74v19.214l17.583 15.72h-13.857v29.692h-21.191V104.59z"/></svg>
